X:1
T: The Taste O' Moray
C:
R:Strathspey
Q: 128
K:A
M:4/4
L:1/16
|:A3B|c3B ce3 E3C EA3|F3E FA3 B4 A3B|c3e d3f e3c BA3|F4 B4 B4 A3B|
c3B ce3 E3C EA3|F3E FA3 B4 c3d|f3e cA3 B3A F3E|F4 A4 A4 c3d|
e4 e3f e3c A3e|f4 d3e f8|e3f a3g f3e cA3|B3e ^d3f e3=d c3d|
e4 e3f e3c A3e|f4 d3e f3g a3g|f3e cA3 B3A F3E|F4 A4 A4:|
